X:1
C: Unknown composer
T: Scale in C
M:C
K:C
L:1/4
|: C D E F | G A B c | d e f g | a b c' b|
  a g f e | d c B A | G F E D | C z z2 :|

